svg/u1fad9.svg

<svg viewBox="0 0 128 128" xmlns="http://www.w3.org/2000/svg" xmlns:xlink="http://www.w3.org/1999/xlink">
  <g>
    <path d="M106.64,52.3c0-5.39-0.1-9.76-2.52-14.7c-1.47-3.01-7.34-11.23-8.51-12.26H33.04 c-1.17,1.03-7.04,9.25-8.51,12.26c-2.42,4.93-2.52,9.31-2.52,14.7c0,7.73,0.03,56.22-0.01,57.05c-0.11,2.72,1.83,4.85,4.93,6.84 c9.95,6.38,28.64,7.81,37.39,7.81s27.44-1.43,37.39-7.81c3.11-1.99,5.04-4.12,4.93-6.84C106.61,108.52,106.64,60.03,106.64,52.3z" fill="#9FE1EA" opacity="0.8"/>
    <ellipse cx="64" cy="110.45" fill="#1492C4" opacity="0.6" rx="35.86" ry="8.47"/>
    <path d="M33.05,25.09l-3,4.03c0,0,18,13.26,52.75,7.91c19.58-3.01,14.68-8.85,14.68-8.85 l-2.82-4.33L33.05,25.09z" fill="#1492C4" opacity="0.6"/>
    <g opacity="0.8">
      <path d="M40.99,91.6c0.64,8.18-8.75,11.52-11.34,3.32c-0.86-2.73-0.43-5.67-0.16-8.52 c0.65-6.69,0.49-13.45-0.46-20.1c-0.9-5.85-2.01-19.47,3.88-22.44c2.58-1.3,4.62-0.67,6.57,0.32c2.85,1.66,3.18,5.58,3.1,8.87 c-0.15,5.66-0.76,11.3-1.2,16.94c-0.48,6.23-1.89,10.85-1.17,15.84C40.48,87.75,40.9,89.68,40.99,91.6z" fill="#FFFFFF"/>
    </g>
    <path d="M99.79,12.1H28.17c0,0-0.82,2.18-0.77,5.9c0.07,6.72,1.94,7.26,4.36,8.4 c5.89,2.77,17.12,4.68,32.17,4.68s26.28-1.9,32.17-4.68c2.42-1.14,4.29-1.68,4.36-8.4C100.5,14.28,99.79,12.1,99.79,12.1z" fill="#E2A610"/>
    <ellipse cx="64" cy="12.47" fill="#9E740B" rx="35.86" ry="8.47"/>
    <path d="M40.94,20.94c5.35,0.65,6.23,0.65,6.72,2.27c0.22,0.75,0.05,1.63-0.53,2.14 c-2.79,2.46-9.47,1.28-12.23-0.8c-0.98-0.74-2.23-2.74-0.71-4.09C35.62,19.2,38.69,20.67,40.94,20.94z" fill="#FFE36C"/>
  </g>
</svg>

<svg viewBox="0 0 128 128" xmlns="http://www.w3.org/2000/svg">
  <defs/>
  <path d="M106.64,52.3 C106.64,46.91 106.54,42.54 104.12,37.6 C102.65,34.59 96.78,26.37 95.61,25.34 L33.04,25.34 C31.87,26.37 26,34.59 24.53,37.6 C22.11,42.53 22.01,46.91 22.01,52.3 C22.01,60.03 22.04,108.52 22,109.35 C21.89,112.07 23.83,114.2 26.93,116.19 C36.88,122.57 55.57,124 64.32,124 C73.07,124 91.76,122.57 101.71,116.19 C104.82,114.2 106.75,112.07 106.64,109.35 C106.61,108.52 106.64,60.03 106.64,52.3 Z" fill="#9FE1EA" opacity="0.8"/>
  <path d="M99.86,110.45 A35.86 8.47 0 1 1 28.14,110.45 A35.86 8.47 0 1 1 99.86,110.45 Z" fill="#1492C4" opacity="0.6"/>
  <path d="M33.05,25.09 L30.05,29.12 C30.05,29.12 48.05,42.38 82.8,37.03 C102.38,34.02 97.48,28.18 97.48,28.18 L94.66,23.85 L33.05,25.09 Z" fill="#1492C4" opacity="0.6"/>
  <path d="M40.99,91.6 C41.63,99.78 32.24,103.12 29.65,94.92 C28.79,92.19 29.22,89.25 29.49,86.4 C30.14,79.71 29.98,72.95 29.03,66.3 C28.13,60.45 27.02,46.83 32.91,43.86 C35.49,42.56 37.53,43.19 39.48,44.18 C42.33,45.84 42.66,49.76 42.58,53.05 C42.43,58.71 41.82,64.35 41.38,69.99 C40.9,76.22 39.49,80.84 40.21,85.83 C40.48,87.75 40.9,89.68 40.99,91.6 Z" fill="#FFFFFF" opacity="0.8"/>
  <path d="M99.79,12.1 L28.17,12.1 C28.17,12.1 27.35,14.28 27.4,18 C27.47,24.72 29.34,25.26 31.76,26.4 C37.65,29.17 48.88,31.08 63.93,31.08 C78.98,31.08 90.21,29.18 96.1,26.4 C98.52,25.26 100.39,24.72 100.46,18 C100.5,14.28 99.79,12.1 99.79,12.1 Z" fill="#E2A610"/>
  <path d="M99.86,12.47 A35.86 8.47 0 1 1 28.14,12.47 A35.86 8.47 0 1 1 99.86,12.47 Z" fill="#9E740B"/>
  <path d="M40.94,20.94 C46.29,21.59 47.17,21.59 47.66,23.21 C47.88,23.96 47.71,24.84 47.13,25.35 C44.34,27.81 37.66,26.63 34.9,24.55 C33.92,23.81 32.67,21.81 34.19,20.46 C35.62,19.2 38.69,20.67 40.94,20.94 Z" fill="#FFE36C"/>
</svg>
